src/assets/svg/ic_folder_move.svg

<svg xmlns="http://www.w3.org/2000/svg" width="16" height="16">
    <path d="M1 2a1 1 0 00-1 1v10a1 1 0 001 1h6v-3h4L9.5 9.5 12 7l2 2V5a1 1 0 00-1-1H7.11L5.37 2.45A1.34 1.34 0 004.51 2H1zm11.5 7l-1 1 2 2H8v1h5.5l-2 2 1 1 3.5-3.5L12.5 9z"/>
</svg>

<svg id="icons" xmlns="http://www.w3.org/2000/svg" width="16" height="16" viewBox="0 0 16 16"><title>folder_move</title><path
     d="M 1 2 A 1 1 0 0 0 0 3 L 0 13 A 1 1 0 0 0 1 14 L 7 14 L 7 11 L 11 11 L 9.5 9.5 L 12 7 L 14 9 L 14 5 A 1 1 0 0 0 13 4 L 7.109375 4 L 5.3691406 2.4492188 A 1.34 1.34 0 0 0 4.5097656 2 L 1 2 z M 12.5 9 L 11.5 10 L 13.5 12 L 8 12 L 8 13 L 13.5 13 L 11.5 15 L 12.5 16 L 16 12.5 L 12.5 9 z "
     id="path4" /></svg>
